images/three-lines.svg

<svg width="48" height="48" viewBox="0 0 48 48" fill="none" xmlns="http://www.w3.org/2000/svg">
<path fill-rule="evenodd" clip-rule="evenodd" d="M12 15C12 14.4477 12.4477 14 13 14H35C35.5523 14 36 14.4477 36 15C36 15.5523 35.5523 16 35 16H13C12.4477 16 12 15.5523 12 15ZM12 24C12 23.4477 12.4477 23 13 23H31C31.5523 23 32 23.4477 32 24C32 24.5523 31.5523 25 31 25H13C12.4477 25 12 24.5523 12 24ZM13 32C12.4477 32 12 32.4477 12 33C12 33.5523 12.4477 34 13 34H27C27.5523 34 28 33.5523 28 33C28 32.4477 27.5523 32 27 32H13Z" fill="white"/>
</svg>

<svg width="48" height="48" fill="none" xmlns="http://www.w3.org/2000/svg"><path fill-rule="evenodd" clip-rule="evenodd" d="M12 15a1 1 0 011-1h22a1 1 0 110 2H13a1 1 0 01-1-1zm0 9a1 1 0 011-1h18a1 1 0 110 2H13a1 1 0 01-1-1zm1 8a1 1 0 100 2h14a1 1 0 100-2H13z" fill="#fff"/></svg>
